svg/u1f50e.svg

<svg viewBox="0 0 128 128" xmlns="http://www.w3.org/2000/svg">
  <g>
    <path d="M80.37,12.67c-19.85,0-34.8,14.95-34.8,34.8s16.15,36.01,36.01,36.01 s34.8-14.95,34.8-34.8S100.22,12.67,80.37,12.67" opacity="0.6" fill="#81D4FA"/>
    <path d="M80.37,12.67c19.85,0,36.01,16.15,36.01,36.01s-14.95,34.8-34.8,34.8S45.56,67.33,45.56,47.47 S60.51,12.67,80.37,12.67 M52.75,19.85c-12.98,14.29-19.6,37.66-1.17,56.09c19.9,19.9,46.51,11.64,60.73-2.88 c7.69-7.85,17.35-36.61-2.33-56.28S61.37,10.36,52.75,19.85z" fill="#616161"/>
    <path d="M28.22,90.86l8.33,8.38l19.62-19.8c0,0,1.66-3.19-1.62-6.47c-3.28-3.28-6.71-1.91-6.71-1.91 L28.22,90.86z" fill="#BDBDBD"/>
    <path d="M39.5,76.96c1.13-0.9,5.05-3,9.36,1.28c4.3,4.28,2.55,7.66,1.7,8.91c0,0-30.53,33.87-31.92,35.27 c-2.05,2.05-6.26,0.3-10.16-3.6c-3.9-3.9-5.78-7.67-3.58-9.87C6.69,107.16,38.37,77.86,39.5,76.96z" fill="#616161"/>
    <path d="M84.08,8.64c19.85,0,36,16.15,36,36s-16.15,36-36,36s-36-16.15-36-36S64.24,8.64,84.08,8.64 M84.08,4.68c-22.06,0-39.95,17.89-39.95,39.95s17.89,39.95,39.95,39.95s39.95-17.89,39.95-39.95S106.15,4.68,84.08,4.68 L84.08,4.68z" fill="#BDBDBD"/>
    <ellipse cx="10.99" cy="116.31" rx="3.56" ry="9.25" fill="#424242" transform="matrix(0.7071 -0.7071 0.7071 0.7071 -79.0224 41.8406)"/>
    <linearGradient id="SVGID_1_" gradientTransform="matrix(0.9276 0.3736 -0.3736 0.9276 55.3577 -12.4161)" gradientUnits="userSpaceOnUse" x1="20.75" x2="37.1458" y1="15.2321" y2="41.8236">
      <stop offset="0.2853" stop-color="#FFFFFF"/>
      <stop offset="1" stop-color="#FFFFFF" stop-opacity="0"/>
    </linearGradient>
    <path d="M72.52,16.93c-8.6,3.9-13.79,9.96-16.99,17.72c-1.18,2.86-2,6.05-1.13,9.02 c0.87,2.96,3.95,5.44,6.94,4.7c1.98-0.49,3.41-2.17,4.86-3.61c2.23-2.2,4.83-4.02,7.66-5.36c3.54-1.68,7.42-2.59,10.9-4.41 c3.47-1.82,6.66-4.88,7.12-8.77c0.45-3.81-1.96-7.61-5.34-9.44C83.16,14.95,77.48,14.68,72.52,16.93z" fill="url(#SVGID_1_)"/>
    <g opacity="0.59">
      <path d="M52.24,25.22L52.24,25.22c0.46-0.01,0.88-0.23,1.13-0.61c1.35-1.98,4.49-7.3,13.03-12.01 c4.98-2.75,9.16-3.84,10.65-4.15c4.22-0.88,2.76-3.07,0.02-2.7c-3.11,0.42-16.78,3.43-26.02,17.24 C50.41,23.96,51.08,25.25,52.24,25.22z" fill="#FFFFFF"/>
    </g>
    <g opacity="0.59">
      <path d="M117.06,61.69c-1.29,0.16-2.48,2.4-2.72,2.79c-1.25,2.04-3.7,7.1-12.22,11.85 c-3.97,2.21-8.06,3.83-10.1,4.39c-3.33,0.92-2.61,3.2,0.1,2.7c3.09-0.57,16.61-4.2,25.2-18.42 C117.92,64,118.78,61.48,117.06,61.69z" fill="#FFFFFF"/>
    </g>
  </g>
  <linearGradient id="SVGID_2_" gradientTransform="matrix(0.9775 0.2108 -0.2108 0.9775 47.8363 -8.5468)" gradientUnits="userSpaceOnUse" x1="58.2236" x2="62.3575" y1="96.4024" y2="53.6854">
    <stop offset="0.2853" stop-color="#FFFFFF"/>
    <stop offset="1" stop-color="#FFFFFF" stop-opacity="0"/>
  </linearGradient>
  <path d="M86.02,76.23c-4.53-0.14-5.41-2.24-4.48-3.93c0.74-1.34,2.47-1.61,4-1.73 c8.15-0.64,16-5.59,22.06-10.87c-1.07,5.49-3.19,8.35-6.52,11.02C97.82,73.32,92.96,76.45,86.02,76.23z" fill="url(#SVGID_2_)"/>
</svg>

<svg viewBox="0 0 128 128" xmlns="http://www.w3.org/2000/svg">
  <defs>
    <linearGradient id="SVGID_2_" gradientTransform="matrix(0.9775 0.2108 -0.2108 0.9775 0 0)" gradientUnits="userSpaceOnUse" x1="103.184486" x2="107.318386" y1="77.962958" y2="35.245958">
      <stop offset="0.2853" stop-color="#FFFFFF"/>
      <stop offset="1" stop-color="#FFFFFF" stop-opacity="0"/>
    </linearGradient>
    <linearGradient id="SVGID_1_" gradientTransform="matrix(0.9276 0.3736 -0.3736 0.9276 0 0)" gradientUnits="userSpaceOnUse" x1="67.460273" x2="83.856073" y1="-16.966108" y2="9.625392">
      <stop offset="0.2853" stop-color="#FFFFFF"/>
      <stop offset="1" stop-color="#FFFFFF" stop-opacity="0"/>
    </linearGradient>
  </defs>
  <path d="M80.37,12.67 C60.52,12.67 45.57,27.62 45.57,47.47 C45.57,67.32 61.72,83.48 81.58,83.48 C101.44,83.48 116.38,68.53 116.38,48.68 C116.38,28.83 100.22,12.67 80.37,12.67" fill="#81D4FA" opacity="0.6"/>
  <path d="M80.37,12.67 C100.22,12.67 116.38,28.82 116.38,48.68 C116.38,68.54 101.43,83.48 81.58,83.48 C61.73,83.48 45.56,67.33 45.56,47.47 C45.56,27.61 60.51,12.67 80.37,12.67 M52.75,19.85 C39.77,34.14 33.15,57.51 51.58,75.94 C71.48,95.84 98.09,87.58 112.31,73.06 C120,65.21 129.66,36.45 109.98,16.78 C90.3,-2.89 61.37,10.36 52.75,19.85 Z" fill="#616161"/>
  <path d="M28.22,90.86 L36.55,99.24 L56.17,79.44 C56.17,79.44 57.83,76.25 54.55,72.97 C51.27,69.69 47.84,71.06 47.84,71.06 L28.22,90.86 Z" fill="#BDBDBD"/>
  <path d="M39.5,76.96 C40.63,76.06 44.55,73.96 48.86,78.24 C53.16,82.52 51.41,85.9 50.56,87.15 C50.56,87.15 20.03,121.02 18.64,122.42 C16.59,124.47 12.38,122.72 8.48,118.82 C4.58,114.92 2.7,111.15 4.9,108.95 C6.69,107.16 38.37,77.86 39.5,76.96 Z" fill="#616161"/>
  <path d="M84.08,8.64 C103.93,8.64 120.08,24.79 120.08,44.64 C120.08,64.49 103.93,80.64 84.08,80.64 C64.23,80.64 48.08,64.49 48.08,44.64 C48.08,24.79 64.24,8.64 84.08,8.64 M84.08,4.68 C62.02,4.68 44.13,22.57 44.13,44.63 C44.13,66.69 62.02,84.58 84.08,84.58 C106.14,84.58 124.03,66.69 124.03,44.63 C124.03,22.57 106.15,4.68 84.08,4.68 L84.08,4.68 Z" fill="#BDBDBD"/>
  <path d="M13.509,113.795 C17.121,117.407 18.922,121.463 17.532,122.853 C16.142,124.243 12.086,122.442 8.474,118.83 C4.862,115.217 3.06,111.162 4.451,109.772 C5.841,108.381 9.896,110.183 13.509,113.795 Z" fill="#424242"/>
  <path d="M72.52,16.93 C63.92,20.83 58.73,26.89 55.53,34.65 C54.35,37.51 53.53,40.7 54.4,43.67 C55.27,46.63 58.35,49.11 61.34,48.37 C63.32,47.88 64.75,46.2 66.2,44.76 C68.43,42.56 71.03,40.74 73.86,39.4 C77.4,37.72 81.28,36.81 84.76,34.99 C88.23,33.17 91.42,30.11 91.88,26.22 C92.33,22.41 89.92,18.61 86.54,16.78 C83.16,14.95 77.48,14.68 72.52,16.93 Z" fill="url(#SVGID_1_)"/>
  <path d="M52.24,25.22 L52.24,25.22 C52.7,25.21 53.12,24.99 53.37,24.61 C54.72,22.63 57.86,17.31 66.4,12.6 C71.38,9.85 75.56,8.76 77.05,8.45 C81.27,7.57 79.81,5.38 77.07,5.75 C73.96,6.17 60.29,9.18 51.05,22.99 C50.41,23.96 51.08,25.25 52.24,25.22 Z" fill="#FFFFFF" opacity="0.59"/>
  <path d="M117.06,61.69 C115.77,61.85 114.58,64.09 114.34,64.48 C113.09,66.52 110.64,71.58 102.12,76.33 C98.15,78.54 94.06,80.16 92.02,80.72 C88.69,81.64 89.41,83.92 92.12,83.42 C95.21,82.85 108.73,79.22 117.32,65 C117.92,64 118.78,61.48 117.06,61.69 Z" fill="#FFFFFF" opacity="0.59"/>
  <path d="M86.02,76.23 C81.49,76.09 80.61,73.99 81.54,72.3 C82.28,70.96 84.01,70.69 85.54,70.57 C93.69,69.93 101.54,64.98 107.6,59.7 C106.53,65.19 104.41,68.05 101.08,70.72 C97.82,73.32 92.96,76.45 86.02,76.23 Z" fill="url(#SVGID_2_)"/>
</svg>
